**kern	**silbe	**kern	**silbe	**harmony	**chordsym	**phrase	**timestamp	**leadinstrument
*ICvox	*	*ICvox	*	*M6/8	*M6/8	*	*	*
*	*	*	*	*C:	*C:	*	*	*
=1	=1	=1	=1	=1	=1	=1	=1	=1
*C:	*	*C:	*	*	*	*	*	*
*M12/8	*	*M12/8	*	*	*	*	*	*
*clefG2	*	*clefG2	*	*	*	*	*	*
1.r	.	1.r	.	1r;	r	.	0	r
=1	=1	=1	=1	=1	=1	=1	=1	=1
*	*	*	*	*>A_intro	*>A_intro	*>A_intro	*>A_intro	*>A_intro
.	.	.	.	2.Am	A:min (A C E)	newline	0.073	r
=2	=2	=2	=2	=2	=2	=2	=2	=2
1.r	.	1.r	.	.	.	.	.	.
=2	=2	=2	=2	=2	=2	=2	=2	=2
.	.	.	.	2.Am	A:min (A C E)	.	.	r
=3	=3	=3	=3	=3	=3	=3	=3	=3
.	.	.	.	2.CM	C:maj (C E G)	.	.	r
=3	=3	=3	=3	=3	=3	=3	=3	=3
1.r	.	1.r	.	.	.	.	.	.
=4	=4	=4	=4	=4	=4	=4	=4	=4
.	.	.	.	2.CM	C:maj (C E G)	.	.	r
=5	=5	=5	=5	=5	=5	=5	=5	=5
.	.	.	.	2.Am	A:min (A C E)	newline	8.714	r
=4	=4	=4	=4	=4	=4	=4	=4	=4
1.r	.	[2.e [a [cc	Oh!	.	.	.	.	.
=6	=6	=6	=6	=6	=6	=6	=6	=6
.	.	.	.	2.Am	A:min (A C E)	.	.	r
.	.	4.e] a] cc]	_	.	.	.	.	.
=7	=7	=7	=7	=7	=7	=7	=7	=7
.	.	.	.	2.CM	C:maj (C E G)	.	.	r
.	.	4.d g b	_	.	.	.	.	.
=5	=5	=5	=5	=5	=5	=5	=5	=5
1.r	.	[4.c [e [g	_	.	.	.	.	.
=8	=8	=8	=8	=8	=8	=8	=8	=8
.	.	.	.	2.CM	C:maj (C E G)	.	.	r
.	.	4c] e] g]	_	.	.	.	.	.
.	.	8r	.	.	.	.	.	.
.	.	2.r	.	.	.	.	.	.
=9	=9	=9	=9	=9	=9	=9	=9	=9
.	.	.	.	2.Am	A:min (A C E)	newline	15.612	r
=6	=6	=6	=6	=6	=6	=6	=6	=6
1.r	.	[2.e [a [cc	Oh!	.	.	.	.	.
=10	=10	=10	=10	=10	=10	=10	=10	=10
.	.	.	.	2.Am	A:min (A C E)	.	.	r
.	.	4.e] a] cc]	_	.	.	.	.	.
=11	=11	=11	=11	=11	=11	=11	=11	=11
.	.	.	.	2.CM	C:maj (C E G)	.	.	r
.	.	4.d g b	_	.	.	.	.	.
=7	=7	=7	=7	=7	=7	=7	=7	=7
1.r	.	[4.c [e [g	_	.	.	.	.	.
=12	=12	=12	=12	=12	=12	=12	=12	=12
.	.	.	.	2.CM	C:maj (C E G)	.	.	r
.	.	8c] e] g]	_	.	.	.	.	.
.	.	4r	.	.	.	.	.	.
.	.	2.r	.	.	.	.	.	.
=13	=13	=13	=13	=13	=13	=13	=13	=13
*	*	*	*	*>B_verse	*>B_verse	*>B_verse	*>B_verse	*>B_verse
.	.	.	.	2.Am	A:min (A C E)	newline	22.346	voice
=8	=8	=8	=8	=8	=8	=8	=8	=8
4.r	.	2.r	.	.	.	.	.	.
=14	=14	=14	=14	=14	=14	=14	=14	=14
.	.	.	.	2.Am	A:min (A C E)	.	.	voice
16g	I	.	.	.	.	.	.	.
[16g	don't	.	.	.	.	.	.	.
16g]	_	.	.	.	.	.	.	.
[16a	mind!	.	.	.	.	.	.	.
8a_	_	.	.	.	.	.	.	.
4a]	_	8r	.	.	.	.	.	.
.	.	16e a cc	I	.	.	.	.	.
.	.	16e a cc	don't	.	.	.	.	.
=15	=15	=15	=15	=15	=15	=15	=15	=15
8bb	_	16e a cc	mind!	2.CM	C:maj (C E G)	.	.	voice
.	.	16r	.	.	.	.	.	.
4.r	.	4.r	.	.	.	.	.	.
=9	=9	=9	=9	=9	=9	=9	=9	=9
4.r	.	1.r	.	.	.	.	.	.
=16	=16	=16	=16	=16	=16	=16	=16	=16
.	.	.	.	2.CM	C:maj (C E G)	.	.	voice
8r	.	.	.	.	.	.	.	.
8c	Your	.	.	.	.	.	.	.
[8c	love	.	.	.	.	.	.	.
4.c]	_	.	.	.	.	.	.	.
=17	=17	=17	=17	=17	=17	=17	=17	=17
.	.	.	.	2.Am	A:min (A C E)	newline	29.219	voice
4.r	.	.	.	.	.	.	.	.
=10	=10	=10	=10	=10	=10	=10	=10	=10
4.r	.	2.r	.	.	.	.	.	.
=18	=18	=18	=18	=18	=18	=18	=18	=18
.	.	.	.	2.Am	A:min (A C E)	.	.	voice
16g	I	.	.	.	.	.	.	.
[16g	don't	.	.	.	.	.	.	.
16g]	_	.	.	.	.	.	.	.
[16a	mind!	.	.	.	.	.	.	.
8a_	_	.	.	.	.	.	.	.
8a]	_	8r	.	.	.	.	.	.
8gg	_	16e a cc	I	.	.	.	.	.
.	.	16e a cc	don't	.	.	.	.	.
=19	=19	=19	=19	=19	=19	=19	=19	=19
8r	.	16e a cc	mind!	2.CM	C:maj (C E G)	.	.	voice
.	.	16r	.	.	.	.	.	.
4.r	.	4.r	.	.	.	.	.	.
=11	=11	=11	=11	=11	=11	=11	=11	=11
*clefF4	*	*	*	*	*	*	*	*
8r	.	1.r	.	.	.	.	.	.
16G	The	.	.	.	.	.	.	.
8e-	one	.	.	.	.	.	.	.
=20	=20	=20	=20	=20	=20	=20	=20	=20
.	.	.	.	2.CM	C:maj (C E G)	.	.	voice
[16d	you're	.	.	.	.	.	.	.
8d]	_	.	.	.	.	.	.	.
8c	thin-	.	.	.	.	.	.	.
16d	-king	.	.	.	.	.	.	.
[16c	of	.	.	.	.	.	.	.
4c]	_	.	.	.	.	.	.	.
=21	=21	=21	=21	=21	=21	=21	=21	=21
8r	.	.	.	2.FM	F:maj (F A C)	newline	36.28	voice
16.r	.	.	.	.	.	.	.	.
32A	But	.	.	.	.	.	.	.
8f#	I	.	.	.	.	.	.	.
8f	know	.	.	.	.	.	.	.
=12	=12	=12	=12	=12	=12	=12	=12	=12
4e-	_	[2.c [f [a	_	.	.	.	.	.
=22	=22	=22	=22	=22	=22	=22	=22	=22
8G	...	.	.	2.FM	F:maj (F A C)	.	.	voice
4.r	.	.	.	.	.	.	.	.
4.r	.	4.c] f] a]	_	.	.	.	.	.
=23	=23	=23	=23	=23	=23	=23	=23	=23
.	.	.	.	2.DM	D:maj (D F# A)	.	.	voice
8r	.	4.B e g	_	.	.	.	.	.
[4B	I	.	.	.	.	.	.	.
=13	=13	=13	=13	=13	=13	=13	=13	=13
8B_	_	[4.A [d [f#	_	.	.	.	.	.
16B]	_	.	.	.	.	.	.	.
16c	_	.	.	.	.	.	.	.
=24	=24	=24	=24	=24	=24	=24	=24	=24
[8B	_	.	.	2.DM	D:maj (D F# A)	.	.	voice
8B]	_	4A] d] f#]	_	.	.	.	.	.
[4A	know	.	.	.	.	.	.	.
.	.	8r	.	.	.	.	.	.
8A]	...	2.r	.	.	.	.	.	.
4r	.	.	.	.	.	.	.	.
=25	=25	=25	=25	=25	=25	=25	=25	=25
.	.	.	.	2.GM	G:maj (G B D)	newline	43.054	voice
4.r	.	.	.	.	.	.	.	.
=14	=14	=14	=14	=14	=14	=14	=14	=14
2.r	.	1.r	.	.	.	.	.	.
=26	=26	=26	=26	=26	=26	=26	=26	=26
.	.	.	.	2.GM	G:maj (G B D)	.	.	voice
8r	.	.	.	.	.	.	.	.
16c	you're	.	.	.	.	.	.	.
8B	gon-	.	.	.	.	.	.	.
=27	=27	=27	=27	=27	=27	=27	=27	=27
.	.	.	.	2.CM	C:maj (C E G)	.	.	voice
16A	-na	.	.	.	.	.	.	.
8B	miss	.	.	.	.	.	.	.
8c	me	.	.	.	.	.	.	.
8A	_	.	.	.	.	.	.	.
=15	=15	=15	=15	=15	=15	=15	=15	=15
*clefG2	*	*	*	*	*	*	*	*
1.r	.	1.r	.	.	.	.	.	.
=28	=28	=28	=28	=28	=28	=28	=28	=28
.	.	.	.	2.CM	C:maj (C E G)	.	.	voice
=29	=29	=29	=29	=29	=29	=29	=29	=29
*	*	*	*	*>B_verse	*>B_verse	*>B_verse	*>B_verse	*>B_verse
.	.	.	.	2.AM	A:maj (A C# E)	newline	49.238	voice
=16	=16	=16	=16	=16	=16	=16	=16	=16
4.r	.	2.r	.	.	.	.	.	.
=30	=30	=30	=30	=30	=30	=30	=30	=30
.	.	.	.	2.AM	A:maj (A C# E)	.	.	voice
16g	I	.	.	.	.	.	.	.
[16g	don't	.	.	.	.	.	.	.
16g]	_	.	.	.	.	.	.	.
[16a	mind!	.	.	.	.	.	.	.
8a_	_	.	.	.	.	.	.	.
8a]	_	8r	.	.	.	.	.	.
8gg	_	16e a cc	I	.	.	.	.	.
.	.	16e a cc	don't	.	.	.	.	.
=31	=31	=31	=31	=31	=31	=31	=31	=31
8r	.	16e a cc	mind!	2.CM	C:maj (C E G)	.	.	voice
.	.	16r	.	.	.	.	.	.
4.r	.	4.r	.	.	.	.	.	.
=17	=17	=17	=17	=17	=17	=17	=17	=17
*clefF4	*	*	*	*	*	*	*	*
4.r	.	1.r	.	.	.	.	.	.
=32	=32	=32	=32	=32	=32	=32	=32	=32
.	.	.	.	2.CM	C:maj (C E G)	.	.	voice
8r	.	.	.	.	.	.	.	.
16G	Your	.	.	.	.	.	.	.
[16e	love	.	.	.	.	.	.	.
8e_	_	.	.	.	.	.	.	.
8e]	_	.	.	.	.	.	.	.
16d	sick	.	.	.	.	.	.	.
[16c	soul	.	.	.	.	.	.	.
=33	=33	=33	=33	=33	=33	=33	=33	=33
8c_	_	.	.	2.AM	A:maj (A C# E)	newline	56.185	voice
4.c]	_	.	.	.	.	.	.	.
=18	=18	=18	=18	=18	=18	=18	=18	=18
*clefG2	*	*	*	*	*	*	*	*
4.r	.	2.r	.	.	.	.	.	.
=34	=34	=34	=34	=34	=34	=34	=34	=34
.	.	.	.	2.AM	A:maj (A C# E)	.	.	voice
16g	I	.	.	.	.	.	.	.
[16g	don't	.	.	.	.	.	.	.
16g]	_	.	.	.	.	.	.	.
[16a	mind!	.	.	.	.	.	.	.
8a_	_	.	.	.	.	.	.	.
16a]	_	8r	.	.	.	.	.	.
16gg	_	.	.	.	.	.	.	.
4r	.	16e a cc	I	.	.	.	.	.
.	.	16e a cc	don't	.	.	.	.	.
=35	=35	=35	=35	=35	=35	=35	=35	=35
.	.	16e a cc	mind	2.CM	C:maj (C E G)	.	.	voice
.	.	16r	.	.	.	.	.	.
4.r	.	4.r	.	.	.	.	.	.
=19	=19	=19	=19	=19	=19	=19	=19	=19
*clefF4	*	*	*	*	*	*	*	*
4.r	.	1.r	.	.	.	.	.	.
=36	=36	=36	=36	=36	=36	=36	=36	=36
.	.	.	.	2.CM	C:maj (C E G)	.	.	voice
8r	.	.	.	.	.	.	.	.
8F	It	.	.	.	.	.	.	.
[8e	can't	.	.	.	.	.	.	.
8e]	_	.	.	.	.	.	.	.
8c	grow	.	.	.	.	.	.	.
=37	=37	=37	=37	=37	=37	=37	=37	=37
[8c	cold	.	.	2.FM	F:maj (F A C)	newline	63.008	voice
8c]	_	.	.	.	.	.	.	.
16f	I	.	.	.	.	.	.	.
[16e-	know	.	.	.	.	.	.	.
8e-_	_	.	.	.	.	.	.	.
=20	=20	=20	=20	=20	=20	=20	=20	=20
4e-]	...	[2.c [f [a	Yee	.	.	.	.	.
=38	=38	=38	=38	=38	=38	=38	=38	=38
8r	.	.	.	2.FM	F:maj (F A C)	.	.	voice
4.r	.	.	.	.	.	.	.	.
4.r	.	4.c] f] a]	_	.	.	.	.	.
=39	=39	=39	=39	=39	=39	=39	=39	=39
.	.	.	.	2.DM	D:maj (D F# A)	.	.	voice
4r	.	4.B e g	_	.	.	.	.	.
[8B	I	.	.	.	.	.	.	.
=21	=21	=21	=21	=21	=21	=21	=21	=21
8B_	_	[4.A [d [f#	_	.	.	.	.	.
16B]	_	.	.	.	.	.	.	.
16c	_	.	.	.	.	.	.	.
=40	=40	=40	=40	=40	=40	=40	=40	=40
[8B	_	.	.	2.DM	D:maj (D F# A)	.	.	voice
8B]	_	4A] d] f#]	...	.	.	.	.	.
[4A	know	.	.	.	.	.	.	.
.	.	8r	.	.	.	.	.	.
8A]	...	2.r	.	.	.	.	.	.
4r	.	.	.	.	.	.	.	.
=41	=41	=41	=41	=41	=41	=41	=41	=41
.	.	.	.	2.GM	G:maj (G B D)	newline	69.943	voice
4.r	.	.	.	.	.	.	.	.
=22	=22	=22	=22	=22	=22	=22	=22	=22
4.r	.	1.r	.	.	.	.	.	.
=42	=42	=42	=42	=42	=42	=42	=42	=42
.	.	.	.	2.GM	G:maj (G B D)	.	.	voice
4.r	.	.	.	.	.	.	.	.
8r	.	.	.	.	.	.	.	.
8e	You	.	.	.	.	.	.	.
=43	=43	=43	=43	=43	=43	=43	=43	=43
16c	gon-	.	.	2.CM	C:maj (C E G)	.	.	voice
16A	-na	.	.	.	.	.	.	.
8c	miss	.	.	.	.	.	.	.
8c	me	.	.	.	.	.	.	.
8A	_	.	.	.	.	.	.	.
=23	=23	=23	=23	=23	=23	=23	=23	=23
1.r	.	1.r	.	.	.	.	.	.
=44	=44	=44	=44	=44	=44	=44	=44	=44
.	.	.	.	2.CM	C:maj (C E G)	.	.	voice
=45	=45	=45	=45	=45	=45	=45	=45	=45
*	*	*	*	*>A_interlude	*>A_interlude	*>A_interlude	*>A_interlude	*>A_interlude
.	.	.	.	2.Am	A:min (A C E)	newline	76.124	voice
=24	=24	=24	=24	=24	=24	=24	=24	=24
1.r	.	[2.e [a [cc	Yee	.	.	.	.	.
=46	=46	=46	=46	=46	=46	=46	=46	=46
.	.	.	.	2.Am	A:min (A C E)	.	.	voice
.	.	4.e] a] cc]	_	.	.	.	.	.
=47	=47	=47	=47	=47	=47	=47	=47	=47
.	.	.	.	2.CM	C:maj (C E G)	.	.	voice
.	.	4.d g b	_	.	.	.	.	.
=25	=25	=25	=25	=25	=25	=25	=25	=25
4.r	.	[4.c [e [g	_	.	.	.	.	.
=48	=48	=48	=48	=48	=48	=48	=48	=48
.	.	.	.	2.CM	C:maj (C E G)	.	.	voice
4.r	.	4c] e] g]	_	.	.	.	.	.
.	.	8r	.	.	.	.	.	.
8r	.	2.r	.	.	.	.	.	.
8e-	Yeah,	.	.	.	.	.	.	.
=49	=49	=49	=49	=49	=49	=49	=49	=49
8c	yeah,	.	.	2.Am	A:min (A C E)	newline	82.811	voice
8c	yeah	.	.	.	.	.	.	.
8A	...	.	.	.	.	.	.	.
8r	.	.	.	.	.	.	.	.
=26	=26	=26	=26	=26	=26	=26	=26	=26
1.r	.	[2.e [a [cc	Yee	.	.	.	.	.
=50	=50	=50	=50	=50	=50	=50	=50	=50
.	.	.	.	2.Am	A:min (A C E)	.	.	voice
.	.	4.e] a] cc]	_	.	.	.	.	.
=51	=51	=51	=51	=51	=51	=51	=51	=51
.	.	.	.	2.CM	C:maj (C E G)	.	.	voice
.	.	4.d g b	_	.	.	.	.	.
=27	=27	=27	=27	=27	=27	=27	=27	=27
4r	.	[4.c [e [g	_	.	.	.	.	.
=52	=52	=52	=52	=52	=52	=52	=52	=52
8e	Some-	.	.	2.CM	C:maj (C E G)	.	.	voice
8c	-where	8c] e] g]	_	.	.	.	.	.
8d	down	4r	.	.	.	.	.	.
16c	the	.	.	.	.	.	.	.
16A	line	.	.	.	.	.	.	.
4c	_	2.r	.	.	.	.	.	.
=53	=53	=53	=53	=53	=53	=53	=53	=53
8r	.	.	.	2.FM	F:maj (F A C)	newline	89.536	voice
4.r	.	.	.	.	.	.	.	.
=28	=28	=28	=28	=28	=28	=28	=28	=28
1.r	.	[2.c [f [a	Yee	.	.	.	.	.
=54	=54	=54	=54	=54	=54	=54	=54	=54
.	.	.	.	2.FM	F:maj (F A C)	.	.	voice
.	.	4.c] f] a]	_	.	.	.	.	.
=55	=55	=55	=55	=55	=55	=55	=55	=55
.	.	.	.	2.DM	D:maj (D F# A)	.	.	voice
.	.	4.B e g	_	.	.	.	.	.
=29	=29	=29	=29	=29	=29	=29	=29	=29
4r	.	[4.A [d [f#	_	.	.	.	.	.
=56	=56	=56	=56	=56	=56	=56	=56	=56
[8c	Mmm	.	.	2.DM	D:maj (D F# A)	.	.	voice
4.c_	_	4A] d] f#]	...	.	.	.	.	.
.	.	8r	.	.	.	.	.	.
8c]	_	2.r	.	.	.	.	.	.
8A	...	.	.	.	.	.	.	.
=57	=57	=57	=57	=57	=57	=57	=57	=57
8r	.	.	.	2.GM	G:maj (G B D)	newline	96.419	guitar
4.r	.	.	.	.	.	.	.	.
=30	=30	=30	=30	=30	=30	=30	=30	=30
1.r	.	1.r	.	.	.	.	.	.
=58	=58	=58	=58	=58	=58	=58	=58	=58
.	.	.	.	2.GM	G:maj (G B D)	.	.	guitar
=59	=59	=59	=59	=59	=59	=59	=59	=59
.	.	.	.	2.CM	C:maj (C E G)	.	.	guitar
=31	=31	=31	=31	=31	=31	=31	=31	=31
1.r	.	1.r	.	.	.	.	.	.
=60	=60	=60	=60	=60	=60	=60	=60	=60
.	.	.	.	2.CM	C:maj (C E G)	.	.	guitar
=61	=61	=61	=61	=61	=61	=61	=61	=61
*	*	*	*	*>B_verse	*>B_verse	*>B_verse	*>B_verse	*>B_verse
.	.	.	.	2.AM	A:maj (A C# E)	newline	102.924	voice
=32	=32	=32	=32	=32	=32	=32	=32	=32
*clefG2	*	*	*	*	*	*	*	*
4.r	.	2.r	.	.	.	.	.	.
=62	=62	=62	=62	=62	=62	=62	=62	=62
.	.	.	.	2.AM	A:maj (A C# E)	.	.	voice
16g	I	.	.	.	.	.	.	.
[16g	don't	.	.	.	.	.	.	.
16g]	_	.	.	.	.	.	.	.
[16a	mind!	.	.	.	.	.	.	.
8a_	_	.	.	.	.	.	.	.
16a]	_	8r	.	.	.	.	.	.
16gg	_	.	.	.	.	.	.	.
4r	.	16e a cc	I	.	.	.	.	.
.	.	16e a cc	don't	.	.	.	.	.
=63	=63	=63	=63	=63	=63	=63	=63	=63
.	.	16e a cc	mind	2.CM	C:maj (C E G)	.	.	voice
.	.	16r	.	.	.	.	.	.
4.r	.	4.r	.	.	.	.	.	.
=33	=33	=33	=33	=33	=33	=33	=33	=33
4.r	.	1.r	.	.	.	.	.	.
=64	=64	=64	=64	=64	=64	=64	=64	=64
.	.	.	.	2.CM	C:maj (C E G)	.	.	voice
8r	.	.	.	.	.	.	.	.
16e-	This	.	.	.	.	.	.	.
16e-	is	.	.	.	.	.	.	.
8e	all	.	.	.	.	.	.	.
16d	of	.	.	.	.	.	.	.
16c	_	.	.	.	.	.	.	.
8d	my	.	.	.	.	.	.	.
=65	=65	=65	=65	=65	=65	=65	=65	=65
[8c	song	.	.	2.AM	A:maj (A C# E)	newline	109.887	voice
4c]	_	.	.	.	.	.	.	.
8r	.	.	.	.	.	.	.	.
=34	=34	=34	=34	=34	=34	=34	=34	=34
4.r	.	2.r	.	.	.	.	.	.
=66	=66	=66	=66	=66	=66	=66	=66	=66
.	.	.	.	2.AM	A:maj (A C# E)	.	.	voice
16g	I	.	.	.	.	.	.	.
[16g	don't	.	.	.	.	.	.	.
16g]	_	.	.	.	.	.	.	.
[16a	mind!	.	.	.	.	.	.	.
8a_	_	.	.	.	.	.	.	.
16a]	_	8r	.	.	.	.	.	.
16ff	_	.	.	.	.	.	.	.
4r	.	16e a cc	I	.	.	.	.	.
.	.	16e a cc	don't	.	.	.	.	.
=67	=67	=67	=67	=67	=67	=67	=67	=67
.	.	16e a cc	mind	2.CM	C:maj (C E G)	.	.	voice
.	.	16r	.	.	.	.	.	.
8r	.	4.r	.	.	.	.	.	.
4r	.	.	.	.	.	.	.	.
=35	=35	=35	=35	=35	=35	=35	=35	=35
8r	.	1.r	.	.	.	.	.	.
16e-	Good-	.	.	.	.	.	.	.
[16e	-bye,	.	.	.	.	.	.	.
=68	=68	=68	=68	=68	=68	=68	=68	=68
8e_	_	.	.	2.CM	C:maj (C E G)	.	.	voice
8e]	_	.	.	.	.	.	.	.
16c	so	.	.	.	.	.	.	.
[16c	long	.	.	.	.	.	.	.
8c_	_	.	.	.	.	.	.	.
4c]	_	.	.	.	.	.	.	.
=69	=69	=69	=69	=69	=69	=69	=69	=69
8r	.	.	.	2.FM	F:maj (F A C)	newline	116.791	voice
8r	.	.	.	.	.	.	.	.
16c	But	.	.	.	.	.	.	.
16g	I	.	.	.	.	.	.	.
8f	know	.	.	.	.	.	.	.
=36	=36	=36	=36	=36	=36	=36	=36	=36
4e-	_	[2.c [f [a	Yee	.	.	.	.	.
=70	=70	=70	=70	=70	=70	=70	=70	=70
8G	....	.	.	2.FM	F:maj (F A C)	.	.	voice
4.r	.	.	.	.	.	.	.	.
4.r	.	4.c] f] a]	_	.	.	.	.	.
=71	=71	=71	=71	=71	=71	=71	=71	=71
.	.	.	.	2.DM	D:maj (D F# A)	.	.	voice
8r	.	4.B e g	_	.	.	.	.	.
[4B	I	.	.	.	.	.	.	.
=37	=37	=37	=37	=37	=37	=37	=37	=37
4.B_	_	[4.A [d [f#	_	.	.	.	.	.
=72	=72	=72	=72	=72	=72	=72	=72	=72
.	.	.	.	2.DM	D:maj (D F# A)	.	.	voice
8B]	_	4A] d] f#]	...	.	.	.	.	.
4A	know...	.	.	.	.	.	.	.
.	.	8r	.	.	.	.	.	.
2.r	.	2.r	.	.	.	.	.	.
=73	=73	=73	=73	=73	=73	=73	=73	=73
.	.	.	.	2.GM	G:maj (G B D)	newline	123.888	voice
=38	=38	=38	=38	=38	=38	=38	=38	=38
2.r	.	1.r	.	.	.	.	.	.
=74	=74	=74	=74	=74	=74	=74	=74	=74
.	.	.	.	2.GM	G:maj (G B D)	.	.	voice
8r	.	.	.	.	.	.	.	.
8c	You	.	.	.	.	.	.	.
=75	=75	=75	=75	=75	=75	=75	=75	=75
16c	gon-	.	.	2.CM	C:maj (C E G)	.	.	voice
16A	-na	.	.	.	.	.	.	.
8c	miss	.	.	.	.	.	.	.
8c	me	.	.	.	.	.	.	.
8A	_	.	.	.	.	.	.	.
=39	=39	=39	=39	=39	=39	=39	=39	=39
1.r	.	1.r	.	.	.	.	.	.
=76	=76	=76	=76	=76	=76	=76	=76	=76
.	.	.	.	2.CM	C:maj (C E G)	.	.	voice
=77	=77	=77	=77	=77	=77	=77	=77	=77
*	*	*	*	*>A_interlude	*>A_interlude	*>A_interlude	*>A_interlude	*>A_interlude
.	.	.	.	2.Am	A:min (A C E)	newline	130.207	voice
=40	=40	=40	=40	=40	=40	=40	=40	=40
4.r	.	[2.e [a [cc	Oh	.	.	.	.	.
=78	=78	=78	=78	=78	=78	=78	=78	=78
.	.	.	.	2.Am	A:min (A C E)	.	.	voice
8r	.	.	.	.	.	.	.	.
8cc	Good-	.	.	.	.	.	.	.
[8cc	-bye,	.	.	.	.	.	.	.
4cc]	_	4.e] a] cc]	_	.	.	.	.	.
=79	=79	=79	=79	=79	=79	=79	=79	=79
16a	so	.	.	2.CM	C:maj (C E G)	.	.	voice
16g	_	.	.	.	.	.	.	.
8cc	long!	4.d g b	_	.	.	.	.	.
16a	_	.	.	.	.	.	.	.
16g	_	.	.	.	.	.	.	.
8r	.	.	.	.	.	.	.	.
=41	=41	=41	=41	=41	=41	=41	=41	=41
*clefF4	*	*	*	*	*	*	*	*
4.r	.	[4.c [e [g	_	.	.	.	.	.
=80	=80	=80	=80	=80	=80	=80	=80	=80
.	.	.	.	2.CM	C:maj (C E G)	.	.	voice
16.c	Mm,	4c] e] g]	_	.	.	.	.	.
16.e	no,	.	.	.	.	.	.	.
16.d	no,	.	.	.	.	.	.	.
.	.	8r	.	.	.	.	.	.
16.c	no,	.	.	.	.	.	.	.
16.A	I	2.r	.	.	.	.	.	.
16.c	don't	.	.	.	.	.	.	.
[16d	mind	.	.	.	.	.	.	.
=81	=81	=81	=81	=81	=81	=81	=81	=81
8d]	_	.	.	2.Am	A:min (A C E)	newline	137.04	voice
4e	_	.	.	.	.	.	.	.
8r	.	.	.	.	.	.	.	.
=42	=42	=42	=42	=42	=42	=42	=42	=42
*clefG2	*	*	*	*	*	*	*	*
4.r	.	[2.e [a [cc	Oh	.	.	.	.	.
=82	=82	=82	=82	=82	=82	=82	=82	=82
.	.	.	.	2.Am	A:min (A C E)	.	.	voice
16r	.	.	.	.	.	.	.	.
16a	A'-	.	.	.	.	.	.	.
16cc	-good-	.	.	.	.	.	.	.
[16cc	-bye,	.	.	.	.	.	.	.
8cc]	_	.	.	.	.	.	.	.
16cc	so	4.e] a] cc]	_	.	.	.	.	.
16a	_	.	.	.	.	.	.	.
8cc	long!	.	.	.	.	.	.	.
=83	=83	=83	=83	=83	=83	=83	=83	=83
16a	_	.	.	2.CM	C:maj (C E G)	.	.	voice
[16g	_	.	.	.	.	.	.	.
8g]	_	4.d g b	_	.	.	.	.	.
4r	.	.	.	.	.	.	.	.
=43	=43	=43	=43	=43	=43	=43	=43	=43
1.r	.	[4.c [e [g	_	.	.	.	.	.
=84	=84	=84	=84	=84	=84	=84	=84	=84
.	.	.	.	2.CM	C:maj (C E G)	.	.	voice
.	.	4c] e] g]	_	.	.	.	.	.
.	.	8r	.	.	.	.	.	.
.	.	2.r	.	.	.	.	.	.
=85	=85	=85	=85	=85	=85	=85	=85	=85
.	.	.	.	2.Am	A:min (A C E)	newline	143.499	voice
=44	=44	=44	=44	=44	=44	=44	=44	=44
1.r	.	1.e; a cc	Oh!	.	.	.	.	.
.	.	.	.	1r;	r	.	148.724	r
.	.	.	.	1r;	r	.	150.909	r
*-	*-	*-	*-	*	*	*	*
.	.	.	.	.
*-	*-	*-	*-	*-
!!!BillboardChartDate: 1961/07/03
!!!BillboardPeak: 47
!!!BillboardWeeksOnChart: 8
!!!COC: James Brown
!!!ENC: Nathaniel Condit-Schultz
!!!EST: Awating manual error checking and editing.
!!!OTL: I Don't Mind
!!!RDF**chordsym: original McGill chord annotation + (implied pitch class set, with bass pitch in first position)
!!!RDF**harmony: **recip + pitch class of root + harmonic quality
!!!RDF**leadinstrument: original McGill primary instrumentation annotation
!!!RDF**phrase: newline = linebreak in original McGill transcription
!!!RDF**timestamp: McGill audio timestamp in seconds
!!!RDT: 2017/01/12/
!!!SampleActualRank: 57
!!!SampleID#: 0003
!!!SampleTargetRank: 56
